lib/brands/icons/google-home.svg

<svg xmlns="http://www.w3.org/2000/svg" fill="none" aria-hidden="true" viewBox="0 0 48 48"><g id="google-home-Icon"><g id="Group"><path id="Vector" fill="#3BAB59" d="M32.5961 33.1184C32.5991 34.256 32.9977 35.4194 32.9973 36.557C32.9969 37.7117 32.5973 38.8408 32.6008 39.9956C26.8653 39.9947 21.1297 39.9956 15.3943 39.9951C15.3971 38.8599 14.8598 37.6921 14.8594 36.557C14.8589 35.3999 15.3953 34.2756 15.3976 33.1184C21.1306 33.1202 26.8632 33.1189 32.5961 33.1184Z"/><path id="Vector_2" fill="#4586F7" d="M25.9603 14.1503C26.757 13.3553 28.0288 12.9364 28.8164 12.1323C32.0796 15.4157 35.3567 18.6862 38.6277 21.9628C38.9224 22.2662 39.2817 22.5454 39.3968 22.9735C39.5092 23.2521 39.4748 23.5557 39.4799 23.8486C39.4804 28.646 39.4794 33.443 39.4806 38.24C39.5531 39.1866 38.6506 40.0708 37.7081 39.9956C36.0057 39.9956 34.3038 39.9961 32.6013 39.9956C32.5944 37.7032 32.6026 35.4109 32.5967 33.1186C32.6008 30.5983 32.5985 28.0785 32.5977 25.5588C30.473 23.4375 28.3529 21.3114 26.2297 19.1891C25.489 18.442 24.7368 17.7057 24.0029 16.9522C24.4053 16.5671 25.544 14.5657 25.9603 14.1503Z"/><path id="Vector_3" fill="#FDC00D" d="M15.3923 25.5681C15.4019 28.0846 15.3913 30.6017 15.3977 33.1186C15.3931 35.4109 15.4 37.7029 15.3946 39.9952C13.6032 39.9944 11.8118 39.9957 10.0204 39.9944C9.27234 39.9004 8.61363 39.2706 8.51831 38.5164C8.51238 36.4937 8.51649 34.4708 8.51698 32.4484C9.71063 31.2658 10.4553 29.73 11.6449 28.5433C12.7468 27.4367 14.2954 26.6797 15.3923 25.5681Z"/><path id="Vector_4" fill="#EC5043" d="M23.9087 8.00303C24.0567 8.02142 24.2328 7.96311 24.3644 8.0461C24.7219 8.11578 25.0353 8.32252 25.2867 8.58056C26.3546 9.65094 27.4236 10.7204 28.4926 11.7898C28.5998 11.9043 28.7249 12.0029 28.8161 12.1321C27.617 13.3565 26.3954 14.5584 25.1876 15.774C24.7915 16.1655 24.405 16.567 24.0027 16.9521C23.4718 17.4522 22.9694 17.9816 22.4496 18.4932C20.0981 20.8524 17.7384 23.2031 15.3923 25.5679C14.2954 26.6795 13.1853 27.7787 12.0832 28.8852C10.8938 30.072 9.71065 31.2656 8.517 32.4482C8.51288 29.8552 8.517 27.262 8.51615 24.6694C8.51893 24.1799 8.50829 23.6904 8.52522 23.2013C8.52026 23.1022 8.59491 23.0238 8.59031 22.9248C8.65963 22.8085 8.72144 22.6874 8.78883 22.57C8.95843 22.3445 9.16929 22.1557 9.36599 21.9545C13.8155 17.4958 18.2664 13.038 22.7173 8.58008C22.8994 8.38894 23.1078 8.21522 23.3614 8.1286C23.5392 8.06908 23.7152 7.98246 23.9087 8.00303Z"/></g></g></svg>

<svg xmlns="http://www.w3.org/2000/svg" fill="none" aria-hidden="true" viewBox="0 0 48 48"><path fill="#3BAB59" d="M32.596 33.118c.003 1.138.402 2.301.401 3.439 0 1.155-.4 2.284-.396 3.439H15.394c.003-1.136-.534-2.304-.535-3.439 0-1.157.536-2.281.539-3.439 5.733.002 11.465 0 17.198 0Z"/><path fill="#4586F7" d="M25.96 14.15c.797-.795 2.069-1.214 2.856-2.018 3.264 3.284 6.54 6.554 9.812 9.83.294.304.654.583.769 1.012.112.278.078.582.083.875V38.24c.073.947-.83 1.83-1.772 1.756h-5.107c-.007-2.293.002-4.585-.004-6.877.004-2.52.002-5.04 0-7.56-2.124-2.122-4.244-4.248-6.367-6.37-.741-.747-1.493-1.483-2.227-2.237.402-.385 1.541-2.386 1.957-2.802Z"/><path fill="#FDC00D" d="M15.392 25.568c.01 2.517 0 5.034.006 7.55-.005 2.293.002 4.585-.003 6.877H10.02c-.748-.095-1.406-.724-1.502-1.479-.006-2.022-.002-4.045-.001-6.068 1.194-1.182 1.938-2.718 3.128-3.905 1.102-1.106 2.65-1.863 3.747-2.975Z"/><path fill="#EC5043" d="M23.909 8.003c.148.018.324-.04.455.043.358.07.671.277.923.535l3.206 3.209c.107.114.232.213.323.342-1.199 1.225-2.42 2.426-3.628 3.642-.396.392-.783.793-1.185 1.178-.531.5-1.034 1.03-1.553 1.541-2.352 2.36-4.712 4.71-7.058 7.075-1.097 1.111-2.207 2.21-3.309 3.317-1.19 1.187-2.372 2.38-3.566 3.563-.004-2.593 0-5.186 0-7.779.002-.49-.009-.979.008-1.468-.005-.099.07-.177.065-.276.07-.117.131-.238.199-.355.17-.226.38-.414.577-.616L22.717 8.58c.182-.191.39-.365.644-.451.178-.06.354-.147.548-.126Z"/></svg>
